!!!SOCIAL_FUNCTION:	songs connected with rare medicines
!!!PDT:	1909
!!!OTL: No_86_Song_of_the_Fire-charm.krn
!!!REG: Great_Lakes
!!!LANG: Non-Tone
!!!LING_GROUP: Algonquin
**kern	**kern
*staff2	*staff1
*clefF4	*clefF4
*k[b-e-a-]	*k[b-e-a-]
*M2/4	*M2/4
4.r	16r
.	16G\
.	12G\L
.	12G\
.	12c\J
=1	=1
8GG/L	8.c\L
8GG/J	.
.	16c\Jk
8GG/L	8c\L
8GG/J	16G\L
.	16G\JJ
=2||	=2||
*M3/4	*M3/4
8GG/L	8.G\L
8GG/J	.
.	16G\Jk
8GG/L	8.G\L
8GG/J	.
.	16G\Jk
8GG/L	12G\L
.	12B-\
8GG/J	.
.	12B-\J
=3||	=3||
*M2/4	*M2/4
2r	8.B-\L
.	16B-\Jk
.	8B-\L
.	16B-\L
.	16B-\JJ
=4||	=4||
*M3/4	*M3/4
2.r	8.B-\L
.	16B-\Jk
.	8.B-\L
.	16G\Jk
.	12G\L
.	12B-\
.	12B-\J
=5||	=5||
*M2/4	*M2/4
2r	8.G\L
.	16G\Jk
.	8G\L
.	16G\L
.	16G\JJ
=6!|:	=6!|:
*M3/4	*M3/4
2.r	8.G\L
.	16G\Jk
.	8.G\L
.	16G\Jk
.	12G\L
.	12G\
.	12F\J
=7||	=7||
*M2/4	*M2/4
2r	8.F\L
.	16F\Jk
.	8F\L
.	16F\L
.	16E-\JJ
=8||	=8||
*M3/4	*M3/4
2.r	8.F\L
.	16F\Jk
.	8.F\L
.	16F\Jk
.	12F\L
.	12G\
.	12F\J
=9||	=9||
*M2/4	*M2/4
2r	8.F\L
.	16F\Jk
.	8F/L
.	16C/L
.	16C/JJ
=10	=10
2r	8.C/L
.	16C/Jk
.	8C\L
.	16G\L
.	16G\JJ
=11	=11
2r	8.B-\L
.	16B-\Jk
.	8B-\
.	32B-\LLL
.	32B-\
.	32B-\
.	32B-\JJJ
=12	=12
2r	8.G\L
.	16G\Jk
.	8G\L
.	16G\L
.	16G\JJ
==:|!	==:|!
*-	*-
